app/_assets/images/icons/icn-buildings.svg

<svg height="32" viewBox="0 0 32 32" width="32" xmlns="http://www.w3.org/2000/svg"><path d="m46 44v2 18h-2v-2h-8v2h-2v-14-2-11c0-.5522847.4477153-1 1-1h4v-3c0-.5522847.4477153-1 1-1s1 .4477153 1 1v3h4c.5522847 0 1 .4477153 1 1zm2 0h7c.5522847 0 1 .4477153 1 1v19h-2v-18h-6zm-16 4v2h-6v14h-2v-15c0-.5522847.4477153-1 1-1zm12 12v-2h-8v2zm0-4v-2h-8v2zm0-4v-2h-8v2zm0-4v-2h-8v2zm0-4v-2h-8v2zm0-4v-2h-8v2zm-16 12h4v2h-4zm0 4h4v2h-4zm0 4h4v2h-4zm22-8c-1.1045695 0-2-.8954305-2-2s.8954305-2 2-2 2 .8954305 2 2-.8954305 2-2 2zm0 10c-1.1045695 0-2-.8954305-2-2s.8954305-2 2-2 2 .8954305 2 2-.8954305 2-2 2zm-1-8h2c.5522847 0 1 .4477153 1 1s-.4477153 1-1 1h-2c-.5522847 0-1-.4477153-1-1s.4477153-1 1-1z" fill="#7cc9ff" fill-rule="evenodd" transform="translate(-24 -32)"/></svg>

<svg width="32px" height="32px" viewBox="0 0 32 32" version="1.1" xmlns="http://www.w3.org/2000/svg" xmlns:xlink="http://www.w3.org/1999/xlink">
    <!-- Generator: Sketch 49 (51002) - http://www.bohemiancoding.com/sketch -->
    <title>icn--32x32--buildings</title>
    <desc>Created with Sketch.</desc>
    <defs></defs>
    <g id="Page-1" stroke="none" stroke-width="1" fill="none" fill-rule="evenodd">
        <g id="02--EE-landing" transform="translate(-234.000000, -439.000000)" fill="#7CC9FF">
            <g id="banner-Kong-EE" transform="translate(210.000000, 407.000000)">
                <path d="M46,44 L46,46 L46,64 L44,64 L44,62 L36,62 L36,64 L34,64 L34,50 L34,48 L34,37 C34,36.4477153 34.4477153,36 35,36 L39,36 L39,33 C39,32.4477153 39.4477153,32 40,32 C40.5522847,32 41,32.4477153 41,33 L41,36 L45,36 C45.5522847,36 46,36.4477153 46,37 L46,44 Z M48,44 L55,44 C55.5522847,44 56,44.4477153 56,45 L56,64 L54,64 L54,46 L48,46 L48,44 Z M32,48 L32,50 L26,50 L26,64 L24,64 L24,49 C24,48.4477153 24.4477153,48 25,48 L32,48 Z M44,60 L44,58 L36,58 L36,60 L44,60 Z M44,56 L44,54 L36,54 L36,56 L44,56 Z M44,52 L44,50 L36,50 L36,52 L44,52 Z M44,48 L44,46 L36,46 L36,48 L44,48 Z M44,44 L44,42 L36,42 L36,44 L44,44 Z M44,40 L44,38 L36,38 L36,40 L44,40 Z M28,52 L32,52 L32,54 L28,54 L28,52 Z M28,56 L32,56 L32,58 L28,58 L28,56 Z M28,60 L32,60 L32,62 L28,62 L28,60 Z M50,52 C48.8954305,52 48,51.1045695 48,50 C48,48.8954305 48.8954305,48 50,48 C51.1045695,48 52,48.8954305 52,50 C52,51.1045695 51.1045695,52 50,52 Z M50,62 C48.8954305,62 48,61.1045695 48,60 C48,58.8954305 48.8954305,58 50,58 C51.1045695,58 52,58.8954305 52,60 C52,61.1045695 51.1045695,62 50,62 Z M49,54 L51,54 C51.5522847,54 52,54.4477153 52,55 C52,55.5522847 51.5522847,56 51,56 L49,56 C48.4477153,56 48,55.5522847 48,55 C48,54.4477153 48.4477153,54 49,54 Z" id="icn--32x32--buildings"></path>
            </g>
        </g>
    </g>
</svg>
